X: 1
T: Sk\aaal
O: Sweden
R: waltz
Z: 2014 John Chambers <jc:trillian.mit.edu>
S: handwritten MS by John Chambers (1970s)
M: 3/4
L: 1/8
K: G
|:\
"G"B2 B2 B2 | B2 A2 G2 | "G"B2 B2 B2 | B2 A2 G2 |\
"G"d6 | _d6 | "D7"c6- | c6 |\
"D7"c2 c2 c2 | c2 B2 A2 | c2 c2 c2 | c2 B2 A2 |\
"D7"e6 | _e6 | "G"d6- | d6 |
%
"C"e2 A2 A2 | A2 B2 c2 | "G"d4 c2 | B6 |\
"C7"c4 B2 | A6 | "G"d4 c2 | B6 |\
"C"e2 A2 A2 | A2 B2 c2 | "G"d4 c2 | B6 |\
"A7"A2^c2 e2 | g2 f2 e2 | "D7"[d2d6] e2 d2 | c2 B2 A2 |]
[|\
"G"B6 | d6 | g6- | g4 g2 |\
"G"g2 f2 g2 | b2 a2 g2 | "D7"f2 z2 a2 | c6 |\
"D7"A6 | c6 | f6- | f4 f2 |\
"D7"f2 ^e2 f2 | a2 g2 f2 | "G"e2 z2 g2 | B6 |
w: Sk\aal, sk\aal, sk\aal, | | | | | | Sk\aal, sk\aal, sk\aal,
%
"C"e2 e2 e2 | g2 f2 e2 | "G"d4 B2 | d6 |\
"C"e2 ^d2 e2 | a2 g2 d2 | "G"d3 edB | "D7"A6 |\
"G"B6 | d6 | g6- | g2 f2 g2 |\
"A7"a2 a2 a2 | "D7"f2 e2 f2 |["1-n" "G"g6  | "D7"fedcBA :|\
["last" "G"G6- | g6 |]
w: | | | | | | | | Sk\aal, sk\aal, sk\aal,
